; generated by PrusaSlicer 2.3.3+win64 on 2021-10-22 at 00:00:00 UTC

; 

; external perimeters extrusion width = 0.45mm
; perimeters extrusion width = 0.45mm
; infill extrusion width = 0.45mm
; solid infill extrusion width = 0.45mm
; top infill extrusion width = 0.40mm
; first layer extrusion width = 0.42mm

M73 P0 R19
M73 Q0 S19
M201 X1000 Y1000 Z200 E5000 ; sets maximum accelerations, mm/sec^2
M203 X200 Y200 Z12 E120 ; sets maximum feedrates, mm/sec
M204 P1250 R1250 T1250 ; sets acceleration (P, T) and retract acceleration (R), mm/sec^2
M205 X8.00 Y8.00 Z0.40 E4.50 ; sets the jerk limits, mm/sec
M205 S0 T0 ; sets the minimum extruding and travel feed rate, mm/sec
M107 ; disable fan
;TYPE:Custom
M862.3 P "MK3S" ; printer model check
M862.1 P0.4 ; nozzle diameter check
M115 U3.10.0 ; tell printer latest fw version
G90 ; use absolute coordinates
M83 ; extruder relative mode
M104 S215 ; set extruder temp
M140 S60 ; set bed temp
M190 S60 ; wait for bed temp
M109 S215 ; wait for extruder temp
G28 W ; home all without mesh bed level
G80 ; mesh bed leveling
G1 Y-3.0 F1000.0 ; go outside print area
G92 E0.0
G1 X60.0 E9.0 F1000.0 ; intro line
G1 X100.0 E12.5 F1000.0 ; intro line
G92 E0.0
M221 S95

; Don't change E values below. Excessive value can damage the printer.
M907 E430 ; set extruder motor current
G21 ; set units to millimeters
G90 ; use absolute coordinates
M83 ; use relative distances for extrusion
M900 K0.05 ; Filament gcode LA 1.5
M900 K30 ; Filament gcode LA 1.0
;LAYER_CHANGE
;Z:0.2
;HEIGHT:0.2
;BEFORE_LAYER_CHANGE
G92 E0.0
;0.2


G1 E-0.80000 F2100.000 ; retract
G1 Z0.400 F10800.000 ; lift Z
;AFTER_LAYER_CHANGE
;0.2
G1 X77.682 Y79.736 ; move to first skirt point
G1 Z0.200 ; restore layer Z
G1 E0.80000 F2100.000 ; unretract
M204 S1000 ; adjust acceleration
;TYPE:Skirt
;WIDTH:0.42
G1 F1200.000
G1 X78.384 Y79.125 E0.02920 ; skirt
G1 X79.643 Y78.247 E0.04813 ; skirt
G1 X80.973 Y77.562 E0.04690 ; skirt
G1 X82.433 Y77.044 E0.04857 ; skirt
G1 X83.946 Y76.730 E0.04845 ; skirt
G1 X85.453 Y76.623 E0.04738 ; skirt
G1 X164.504 Y76.623 E2.47858 ; skirt
M73 P1 R19
M73 Q1 S19
G1 X165.351 Y76.656 E0.02659 ; skirt
G1 X166.746 Y76.848 E0.04416 ; skirt
G1 X168.386 Y77.308 E0.05340 ; skirt
G1 X169.668 Y77.866 E0.04384 ; skirt
G1 X170.417 Y78.283 E0.02686 ; skirt
G1 X171.616 Y79.125 E0.04594 ; skirt
G1 X172.262 Y79.682 E0.02674 ; skirt
G1 X172.865 Y80.290 E0.02686 ; skirt
G1 X173.751 Y81.380 E0.04404 ; skirt
G1 X174.635 Y82.833 E0.05333 ; skirt
G1 X175.194 Y84.121 E0.04404 ; skirt
G1 X175.455 Y84.929 E0.02662 ; skirt
G1 X175.653 Y85.759 E0.02674 ; skirt
G1 X175.845 Y87.154 E0.04416 ; skirt
G1 X175.877 Y121.504 E1.07701 ; skirt
G1 X175.775 Y123.052 E0.04866 ; skirt
G1 X175.474 Y124.569 E0.04847 ; skirt
G1 X175.002 Y125.973 E0.04645 ; skirt
G1 X174.620 Y126.816 E0.02902 ; skirt
G1 X173.874 Y128.100 E0.04657 ; skirt
G1 X172.933 Y129.327 E0.04848 ; skirt
G1 X171.889 Y130.377 E0.04644 ; skirt
G1 X171.174 Y130.965 E0.02902 ; skirt
G1 X169.930 Y131.791 E0.04680 ; skirt
G1 X168.543 Y132.474 E0.04847 ; skirt
G1 X167.076 Y132.972 E0.04859 ; skirt
G1 X165.556 Y133.275 E0.04859 ; skirt
G1 X164.044 Y133.377 E0.04752 ; skirt
G1 X85.267 Y133.354 E2.46999 ; skirt
G1 X83.692 Y133.151 E0.04978 ; skirt
G1 X82.253 Y132.769 E0.04668 ; skirt
G1 X80.817 Y132.185 E0.04859 ; skirt
G1 X79.997 Y131.748 E0.02914 ; skirt
G1 X78.765 Y130.919 E0.04657 ; skirt
G1 X77.595 Y129.891 E0.04883 ; skirt
G1 X76.576 Y128.729 E0.04847 ; skirt
G1 X75.709 Y127.430 E0.04895 ; skirt
G1 X75.029 Y126.050 E0.04824 ; skirt
G1 X74.547 Y124.642 E0.04668 ; skirt
G1 X74.337 Y123.741 E0.02900 ; skirt
G1 X74.145 Y122.214 E0.04825 ; skirt
G1 X74.151 Y87.198 E1.09789 ; skirt
G1 X74.360 Y85.690 E0.04773 ; skirt
G1 X74.755 Y84.263 E0.04642 ; skirt
G1 X75.096 Y83.399 E0.02913 ; skirt
G1 X75.785 Y82.080 E0.04666 ; skirt
G1 X76.672 Y80.824 E0.04821 ; skirt
G1 X77.641 Y79.780 E0.04466 ; skirt
; printing object coating_mask.stl id:0 copy 0
;WIPE_START
G1 F8640.000
G1 X78.384 Y79.125 E-0.22884 ; wipe and retract
G1 X79.643 Y78.247 E-0.35447 ; wipe and retract
G1 X80.324 Y77.897 E-0.17670 ; wipe and retract
;WIPE_END
G1 E-0.04000 F2100.000 ; retract
G1 Z0.600 F10800.000 ; lift Z
G1 X88.677 Y85.105 ; move to first perimeter point
G1 Z0.200 ; restore layer Z
G1 E0.80000 F2100.000 ; unretract
;TYPE:Perimeter
G1 F1200.000
G1 X88.876 Y84.821 E0.01088 ; perimeter
G1 X89.121 Y84.576 E0.01088 ; perimeter
G1 X89.405 Y84.377 E0.01088 ; perimeter
G1 X89.719 Y84.230 E0.01088 ; perimeter
G1 X90.054 Y84.140 E0.01088 ; perimeter
G1 X90.366 Y84.113 E0.00979 ; perimeter
G1 X159.634 Y84.113 E2.17187 ; perimeter
M73 P2 R19
M73 Q2 S19
G1 X159.946 Y84.140 E0.00980 ; perimeter
G1 X160.281 Y84.230 E0.01088 ; perimeter
G1 X160.595 Y84.377 E0.01088 ; perimeter
G1 X160.879 Y84.576 E0.01088 ; perimeter
G1 X161.124 Y84.821 E0.01088 ; perimeter
G1 X161.323 Y85.105 E0.01088 ; perimeter
G1 X161.470 Y85.419 E0.01088 ; perimeter
G1 X161.560 Y85.754 E0.01088 ; perimeter
G1 X161.587 Y86.066 E0.00979 ; perimeter
G1 X161.587 Y88.478 E0.07564 ; perimeter
G1 X161.603 Y88.770 E0.00917 ; perimeter
G1 X161.649 Y89.037 E0.00848 ; perimeter
G1 X161.724 Y89.297 E0.00848 ; perimeter
G1 X161.827 Y89.546 E0.00848 ; perimeter
G1 X161.958 Y89.783 E0.00848 ; perimeter
G1 X162.114 Y90.004 E0.00848 ; perimeter
G1 X162.295 Y90.205 E0.00848 ; perimeter
G1 X162.496 Y90.386 E0.00848 ; perimeter
G1 X162.717 Y90.542 E0.00848 ; perimeter
G1 X162.954 Y90.673 E0.00848 ; perimeter
G1 X163.203 Y90.776 E0.00848 ; perimeter
G1 X163.463 Y90.851 E0.00848 ; perimeter
G1 X163.730 Y90.897 E0.00848 ; perimeter
G1 X164.022 Y90.913 E0.00917 ; perimeter
G1 X166.434 Y90.913 E0.07564 ; perimeter
G1 X166.746 Y90.940 E0.00979 ; perimeter
G1 X167.081 Y91.030 E0.01088 ; perimeter
G1 X167.395 Y91.177 E0.01088 ; perimeter
G1 X167.679 Y91.376 E0.01088 ; perimeter
G1 X167.924 Y91.621 E0.01088 ; perimeter
G1 X168.123 Y91.905 E0.01088 ; perimeter
G1 X168.270 Y92.219 E0.01088 ; perimeter
G1 X168.360 Y92.554 E0.01088 ; perimeter
G1 X168.387 Y92.866 E0.00980 ; perimeter
G1 X168.387 Y117.134 E0.76093 ; perimeter
M73 P2 R18
G1 X168.360 Y117.446 E0.00980 ; perimeter
G1 X168.270 Y117.781 E0.01088 ; perimeter
G1 X168.123 Y118.095 E0.01088 ; perimeter
G1 X167.924 Y118.379 E0.01088 ; perimeter
G1 X167.679 Y118.624 E0.01088 ; perimeter
G1 X167.395 Y118.823 E0.01088 ; perimeter
G1 X167.081 Y118.970 E0.01088 ; perimeter
G1 X166.746 Y119.060 E0.01088 ; perimeter
G1 X166.434 Y119.087 E0.00979 ; perimeter
G1 X164.022 Y119.087 E0.07564 ; perimeter
G1 X163.730 Y119.103 E0.00917 ; perimeter
G1 X163.463 Y119.149 E0.00848 ; perimeter
G1 X163.203 Y119.224 E0.00848 ; perimeter
G1 X162.954 Y119.327 E0.00848 ; perimeter
G1 X162.717 Y119.458 E0.00848 ; perimeter
G1 X162.496 Y119.614 E0.00848 ; perimeter
G1 X162.295 Y119.795 E0.00848 ; perimeter
G1 X162.114 Y119.996 E0.00848 ; perimeter
G1 X161.958 Y120.217 E0.00848 ; perimeter
G1 X161.827 Y120.454 E0.00848 ; perimeter
G1 X161.724 Y120.703 E0.00848 ; perimeter
G1 X161.649 Y120.963 E0.00848 ; perimeter
G1 X161.603 Y121.230 E0.00848 ; perimeter
G1 X161.587 Y121.522 E0.00917 ; perimeter
G1 X161.587 Y123.934 E0.07564 ; perimeter
G1 X161.560 Y124.246 E0.00979 ; perimeter
G1 X161.470 Y124.581 E0.01088 ; perimeter
G1 X161.323 Y124.895 E0.01088 ; perimeter
G1 X161.124 Y125.179 E0.01088 ; perimeter
G1 X160.879 Y125.424 E0.01088 ; perimeter
G1 X160.595 Y125.623 E0.01088 ; perimeter
G1 X160.281 Y125.770 E0.01088 ; perimeter
G1 X159.946 Y125.860 E0.01088 ; perimeter
G1 X159.634 Y125.887 E0.00980 ; perimeter
G1 X90.366 Y125.887 E2.17187 ; perimeter
G1 X90.054 Y125.860 E0.00979 ; perimeter
G1 X89.719 Y125.770 E0.01088 ; perimeter
G1 X89.405 Y125.623 E0.01088 ; perimeter
G1 X89.121 Y125.424 E0.01088 ; perimeter
G1 X88.876 Y125.179 E0.01088 ; perimeter
G1 X88.677 Y124.895 E0.01088 ; perimeter
G1 X88.530 Y124.581 E0.01088 ; perimeter
G1 X88.440 Y124.246 E0.01088 ; perimeter
G1 X88.413 Y123.934 E0.00979 ; perimeter
G1 X88.413 Y121.522 E0.07564 ; perimeter
G1 X88.397 Y121.230 E0.00917 ; perimeter
G1 X88.351 Y120.963 E0.00848 ; perimeter
G1 X88.276 Y120.703 E0.00848 ; perimeter
G1 X88.173 Y120.454 E0.00848 ; perimeter
G1 X88.042 Y120.217 E0.00848 ; perimeter
G1 X87.886 Y119.996 E0.00848 ; perimeter
G1 X87.705 Y119.795 E0.00848 ; perimeter
G1 X87.504 Y119.614 E0.00848 ; perimeter
G1 X87.283 Y119.458 E0.00848 ; perimeter
G1 X87.046 Y119.327 E0.00848 ; perimeter
G1 X86.797 Y119.224 E0.00848 ; perimeter
G1 X86.537 Y119.149 E0.00848 ; perimeter
G1 X86.270 Y119.103 E0.00848 ; perimeter
G1 X85.978 Y119.087 E0.00917 ; perimeter
G1 X83.566 Y119.087 E0.07564 ; perimeter
G1 X83.254 Y119.060 E0.00980 ; perimeter
G1 X82.919 Y118.970 E0.01088 ; perimeter
G1 X82.605 Y118.823 E0.01088 ; perimeter
G1 X82.321 Y118.624 E0.01088 ; perimeter
G1 X82.076 Y118.379 E0.01088 ; perimeter
G1 X81.877 Y118.095 E0.01088 ; perimeter
G1 X81.730 Y117.781 E0.01088 ; perimeter
G1 X81.640 Y117.446 E0.01088 ; perimeter
G1 X81.613 Y117.134 E0.00980 ; perimeter
G1 X81.613 Y92.866 E0.76093 ; perimeter
G1 X81.640 Y92.554 E0.00980 ; perimeter
G1 X81.730 Y92.219 E0.01088 ; perimeter
G1 X81.877 Y91.905 E0.01088 ; perimeter
M73 P3 R18
G1 X82.076 Y91.621 E0.01088 ; perimeter
M73 Q3 S19
G1 X82.321 Y91.376 E0.01088 ; perimeter
G1 X82.605 Y91.177 E0.01088 ; perimeter
G1 X82.919 Y91.030 E0.01088 ; perimeter
G1 X83.254 Y90.940 E0.01088 ; perimeter
G1 X83.566 Y90.913 E0.00980 ; perimeter
G1 X85.978 Y90.913 E0.07564 ; perimeter
G1 X86.270 Y90.897 E0.00917 ; perimeter
G1 X86.537 Y90.851 E0.00848 ; perimeter
G1 X86.797 Y90.776 E0.00848 ; perimeter
G1 X87.046 Y90.673 E0.00848 ; perimeter
G1 X87.283 Y90.542 E0.00848 ; perimeter
G1 X87.504 Y90.386 E0.00848 ; perimeter
G1 X87.705 Y90.205 E0.00848 ; perimeter
G1 X87.886 Y90.004 E0.00848 ; perimeter
G1 X88.042 Y89.783 E0.00848 ; perimeter
G1 X88.173 Y89.546 E0.00848 ; perimeter
G1 X88.276 Y89.297 E0.00848 ; perimeter
G1 X88.351 Y89.037 E0.00848 ; perimeter
G1 X88.397 Y88.770 E0.00848 ; perimeter
G1 X88.413 Y88.478 E0.00917 ; perimeter
G1 X88.413 Y86.066 E0.07564 ; perimeter
G1 X88.440 Y85.754 E0.00979 ; perimeter
G1 X88.530 Y85.419 E0.01088 ; perimeter
G1 X88.651 Y85.159 E0.00900 ; perimeter
G1 X88.993 Y85.319 F10800.000 ; move to first perimeter point
;TYPE:External perimeter
G1 F1200.000
G1 X89.165 Y85.064 E0.00964 ; perimeter
G1 X89.364 Y84.865 E0.00881 ; perimeter
G1 X89.594 Y84.704 E0.00881 ; perimeter
G1 X89.849 Y84.586 E0.00881 ; perimeter
G1 X90.120 Y84.513 E0.00881 ; perimeter
G1 X90.382 Y84.490 E0.00824 ; perimeter
G1 X159.618 Y84.490 E2.17084 ; perimeter
M73 Q3 S18
G1 X159.880 Y84.513 E0.00824 ; perimeter
G1 X160.151 Y84.586 E0.00881 ; perimeter
G1 X160.406 Y84.704 E0.00881 ; perimeter
G1 X160.636 Y84.865 E0.00881 ; perimeter
G1 X160.835 Y85.064 E0.00881 ; perimeter
G1 X160.996 Y85.294 E0.00881 ; perimeter
G1 X161.114 Y85.549 E0.00881 ; perimeter
G1 X161.187 Y85.820 E0.00881 ; perimeter
G1 X161.210 Y86.082 E0.00824 ; perimeter
G1 X161.210 Y88.488 E0.07545 ; perimeter
G1 X161.228 Y88.812 E0.01017 ; perimeter
G1 X161.281 Y89.121 E0.00981 ; perimeter
G1 X161.367 Y89.421 E0.00981 ; perimeter
G1 X161.487 Y89.710 E0.00981 ; perimeter
G1 X161.638 Y89.984 E0.00981 ; perimeter
G1 X161.819 Y90.239 E0.00981 ; perimeter
G1 X162.028 Y90.472 E0.00981 ; perimeter
G1 X162.261 Y90.681 E0.00981 ; perimeter
G1 X162.516 Y90.862 E0.00981 ; perimeter
G1 X162.790 Y91.013 E0.00981 ; perimeter
G1 X163.079 Y91.133 E0.00981 ; perimeter
G1 X163.379 Y91.219 E0.00981 ; perimeter
G1 X163.688 Y91.272 E0.00981 ; perimeter
G1 X164.012 Y91.290 E0.01017 ; perimeter
G1 X166.418 Y91.290 E0.07545 ; perimeter
G1 X166.680 Y91.313 E0.00824 ; perimeter
G1 X166.951 Y91.386 E0.00881 ; perimeter
G1 X167.206 Y91.504 E0.00881 ; perimeter
G1 X167.436 Y91.665 E0.00881 ; perimeter
G1 X167.635 Y91.864 E0.00881 ; perimeter
G1 X167.796 Y92.094 E0.00881 ; perimeter
G1 X167.914 Y92.349 E0.00881 ; perimeter
G1 X167.987 Y92.620 E0.00881 ; perimeter
G1 X168.010 Y92.882 E0.00824 ; perimeter
G1 X168.010 Y117.118 E0.75990 ; perimeter
G1 X167.987 Y117.380 E0.00824 ; perimeter
G1 X167.914 Y117.651 E0.00881 ; perimeter
G1 X167.796 Y117.906 E0.00881 ; perimeter
G1 X167.635 Y118.136 E0.00881 ; perimeter
G1 X167.436 Y118.335 E0.00881 ; perimeter
G1 X167.206 Y118.496 E0.00881 ; perimeter
G1 X166.951 Y118.614 E0.00881 ; perimeter
G1 X166.680 Y118.687 E0.00881 ; perimeter
G1 X166.418 Y118.710 E0.00824 ; perimeter
G1 X164.012 Y118.710 E0.07545 ; perimeter
G1 X163.688 Y118.728 E0.01017 ; perimeter
G1 X163.379 Y118.781 E0.00981 ; perimeter
G1 X163.079 Y118.867 E0.00981 ; perimeter
G1 X162.790 Y118.987 E0.00981 ; perimeter
G1 X162.516 Y119.138 E0.00981 ; perimeter
G1 X162.261 Y119.319 E0.00981 ; perimeter
G1 X162.028 Y119.528 E0.00981 ; perimeter
G1 X161.819 Y119.761 E0.00981 ; perimeter
G1 X161.638 Y120.016 E0.00981 ; perimeter
G1 X161.487 Y120.290 E0.00981 ; perimeter
G1 X161.367 Y120.579 E0.00981 ; perimeter
G1 X161.281 Y120.879 E0.00981 ; perimeter
G1 X161.228 Y121.188 E0.00981 ; perimeter
G1 X161.210 Y121.512 E0.01017 ; perimeter
G1 X161.210 Y123.918 E0.07545 ; perimeter
G1 X161.187 Y124.180 E0.00824 ; perimeter
G1 X161.114 Y124.451 E0.00881 ; perimeter
G1 X160.996 Y124.706 E0.00881 ; perimeter
G1 X160.835 Y124.936 E0.00881 ; perimeter
G1 X160.636 Y125.135 E0.00881 ; perimeter
G1 X160.406 Y125.296 E0.00881 ; perimeter
G1 X160.151 Y125.414 E0.00881 ; perimeter
G1 X159.880 Y125.487 E0.00881 ; perimeter
G1 X159.618 Y125.510 E0.00824 ; perimeter
G1 X90.382 Y125.510 E2.17084 ; perimeter
G1 X90.120 Y125.487 E0.00824 ; perimeter
G1 X89.849 Y125.414 E0.00881 ; perimeter
G1 X89.594 Y125.296 E0.00881 ; perimeter
G1 X89.364 Y125.135 E0.00881 ; perimeter
G1 X89.165 Y124.936 E0.00881 ; perimeter
G1 X89.004 Y124.706 E0.00881 ; perimeter
G1 X88.886 Y124.451 E0.00881 ; perimeter
G1 X88.813 Y124.180 E0.00881 ; perimeter
G1 X88.790 Y123.918 E0.00824 ; perimeter
G1 X88.790 Y121.512 E0.07545 ; perimeter
G1 X88.772 Y121.188 E0.01017 ; perimeter
G1 X88.719 Y120.879 E0.00981 ; perimeter
G1 X88.633 Y120.579 E0.00981 ; perimeter
G1 X88.513 Y120.290 E0.00981 ; perimeter
G1 X88.362 Y120.016 E0.00981 ; perimeter
G1 X88.181 Y119.761 E0.00981 ; perimeter
G1 X87.972 Y119.528 E0.00981 ; perimeter
G1 X87.739 Y119.319 E0.00981 ; perimeter
G1 X87.484 Y119.138 E0.00981 ; perimeter
G1 X87.210 Y118.987 E0.00981 ; perimeter
G1 X86.921 Y118.867 E0.00981 ; perimeter
G1 X86.621 Y118.781 E0.00981 ; perimeter
G1 X86.312 Y118.728 E0.00981 ; perimeter
G1 X85.988 Y118.710 E0.01017 ; perimeter
G1 X83.582 Y118.710 E0.07545 ; perimeter
G1 X83.320 Y118.687 E0.00824 ; perimeter
G1 X83.049 Y118.614 E0.00881 ; perimeter
G1 X82.794 Y118.496 E0.00881 ; perimeter
G1 X82.564 Y118.335 E0.00881 ; perimeter
G1 X82.365 Y118.136 E0.00881 ; perimeter
G1 X82.204 Y117.906 E0.00881 ; perimeter
G1 X82.086 Y117.651 E0.00881 ; perimeter
G1 X82.013 Y117.380 E0.00881 ; perimeter
G1 X81.990 Y117.118 E0.00824 ; perimeter
G1 X81.990 Y92.882 E0.75990 ; perimeter
M73 P4 R18
M73 Q4 S18
G1 X82.013 Y92.620 E0.00824 ; perimeter
G1 X82.086 Y92.349 E0.00881 ; perimeter
G1 X82.204 Y92.094 E0.00881 ; perimeter
G1 X82.365 Y91.864 E0.00881 ; perimeter
G1 X82.564 Y91.665 E0.00881 ; perimeter
G1 X82.794 Y91.504 E0.00881 ; perimeter
G1 X83.049 Y91.386 E0.00881 ; perimeter
G1 X83.320 Y91.313 E0.00881 ; perimeter
G1 X83.582 Y91.290 E0.00824 ; perimeter
G1 X85.988 Y91.290 E0.07545 ; perimeter
G1 X86.312 Y91.272 E0.01017 ; perimeter
G1 X86.621 Y91.219 E0.00981 ; perimeter
G1 X86.921 Y91.133 E0.00981 ; perimeter
G1 X87.210 Y91.013 E0.00981 ; perimeter
G1 X87.484 Y90.862 E0.00981 ; perimeter
G1 X87.739 Y90.681 E0.00981 ; perimeter
G1 X87.972 Y90.472 E0.00981 ; perimeter
G1 X88.181 Y90.239 E0.00981 ; perimeter
G1 X88.362 Y89.984 E0.00981 ; perimeter
G1 X88.513 Y89.710 E0.00981 ; perimeter
G1 X88.633 Y89.421 E0.00981 ; perimeter
G1 X88.719 Y89.121 E0.00981 ; perimeter
G1 X88.772 Y88.812 E0.00981 ; perimeter
G1 X88.790 Y88.488 E0.01017 ; perimeter
G1 X88.790 Y86.082 E0.07545 ; perimeter
G1 X88.813 Y85.820 E0.00824 ; perimeter
G1 X88.886 Y85.549 E0.00881 ; perimeter
G1 X88.968 Y85.373 E0.00608 ; perimeter
