; generated by PrusaSlicer 2.3.3+win64 on 2021-10-22 at 00:00:00 UTC

; 

; external perimeters extrusion width = 0.45mm
; perimeters extrusion width = 0.45mm
; infill extrusion width = 0.45mm
; solid infill extrusion width = 0.45mm
; top infill extrusion width = 0.40mm
; first layer extrusion width = 0.42mm

M73 P0 R18
M73 Q0 S18
M201 X1000 Y1000 Z200 E5000 ; sets maximum accelerations, mm/sec^2
M203 X200 Y200 Z12 E120 ; sets maximum feedrates, mm/sec
M204 P1250 R1250 T1250 ; sets acceleration (P, T) and retract acceleration (R), mm/sec^2
M205 X8.00 Y8.00 Z0.40 E4.50 ; sets the jerk limits, mm/sec
M205 S0 T0 ; sets the minimum extruding and travel feed rate, mm/sec
M107 ; disable fan
;TYPE:Custom
M862.3 P "MK3S" ; printer model check
M862.1 P0.4 ; nozzle diameter check
M115 U3.10.0 ; tell printer latest fw version
G90 ; use absolute coordinates
M83 ; extruder relative mode
M104 S240 ; set extruder temp
M140 S85 ; set bed temp
M190 S85 ; wait for bed temp
M109 S240 ; wait for extruder temp
G28 W ; home all without mesh bed level
G80 ; mesh bed leveling
G1 Y-3.0 F1000.0 ; go outside print area
G92 E0.0
G1 X60.0 E9.0 F1000.0 ; intro line
G1 X100.0 E12.5 F1000.0 ; intro line
G92 E0.0
M221 S95

; Don't change E values below. Excessive value can damage the printer.
M907 E430 ; set extruder motor current
G21 ; set units to millimeters
G90 ; use absolute coordinates
M83 ; use relative distances for extrusion
M900 K0.08 ; Filament gcode LA 1.5
M900 K45 ; Filament gcode LA 1.0
;LAYER_CHANGE
;Z:0.2
;HEIGHT:0.2
;BEFORE_LAYER_CHANGE
G92 E0.0
;0.2


G1 E-1.00000 F2100.000 ; retract
G1 Z0.200 F10800.000 ; lift Z
;AFTER_LAYER_CHANGE
;0.2
G1 Z0.400 ; lift Z
G1 X103.710 Y62.260 ; move to first skirt point
G1 Z0.200 ; restore layer Z
G1 E1.00000 F2100.000 ; unretract
M204 S1000 ; adjust acceleration
;TYPE:Skirt
;WIDTH:0.42
G1 F1200.000
G1 X104.325 Y61.576 E0.02882 ; skirt
G1 X104.831 Y61.156 E0.02063 ; skirt
G1 X105.399 Y60.795 E0.02110 ; skirt
G1 X106.228 Y60.425 E0.02846 ; skirt
G1 X107.485 Y60.148 E0.04034 ; skirt
G1 X141.504 Y60.123 E1.06665 ; skirt
G1 X142.644 Y60.235 E0.03593 ; skirt
G1 X143.733 Y60.564 E0.03565 ; skirt
G1 X144.747 Y61.102 E0.03600 ; skirt
G1 X145.585 Y61.777 E0.03374 ; skirt
G1 X146.322 Y62.643 E0.03564 ; skirt
G1 X146.734 Y63.329 E0.02511 ; skirt
G1 X147.135 Y64.332 E0.03386 ; skirt
G1 X147.356 Y65.509 E0.03755 ; skirt
G1 X147.377 Y144.011 E2.46139 ; skirt
M73 P1 R18
M73 Q1 S18
G1 X147.265 Y145.140 E0.03557 ; skirt
G1 X146.942 Y146.219 E0.03529 ; skirt
G1 X146.632 Y146.861 E0.02237 ; skirt
G1 X146.061 Y147.706 E0.03196 ; skirt
G1 X145.592 Y148.217 E0.02178 ; skirt
G1 X144.857 Y148.822 E0.02981 ; skirt
G1 X143.652 Y149.467 E0.04288 ; skirt
G1 X142.731 Y149.746 E0.03017 ; skirt
G1 X142.029 Y149.853 E0.02226 ; skirt
G1 X107.973 Y149.877 E1.06780 ; skirt
G1 X106.896 Y149.762 E0.03398 ; skirt
G1 X105.900 Y149.449 E0.03275 ; skirt
G1 X104.741 Y148.774 E0.04204 ; skirt
G1 X104.058 Y148.156 E0.02890 ; skirt
G1 X103.601 Y147.591 E0.02277 ; skirt
G1 X103.133 Y146.782 E0.02930 ; skirt
G1 X102.886 Y146.160 E0.02098 ; skirt
G1 X102.720 Y145.512 E0.02098 ; skirt
G1 X102.624 Y144.579 E0.02942 ; skirt
G1 X102.623 Y65.489 E2.47982 ; skirt
G1 X102.737 Y64.399 E0.03433 ; skirt
G1 X103.051 Y63.400 E0.03287 ; skirt
G1 X103.680 Y62.312 E0.03941 ; skirt
; printing object hole_guide.stl id:0 copy 0
;WIPE_START
G1 F8640.000
G1 X104.325 Y61.576 E-0.22581 ; wipe and retract
G1 X104.831 Y61.156 E-0.15189 ; wipe and retract
G1 X105.399 Y60.795 E-0.15541 ; wipe and retract
G1 X106.228 Y60.425 E-0.20960 ; wipe and retract
G1 X107.105 Y60.232 E-0.20729 ; wipe and retract
;WIPE_END
G1 E-0.05000 F2100.000 ; retract
G1 Z0.400 F10800.000 ; lift Z
G1 X133.977 Y101.909 ; move to first perimeter point
G1 Z0.200 ; restore layer Z
G1 E1.00000 F2100.000 ; unretract
;TYPE:Perimeter
G1 F1200.000
G1 X134.275 Y101.658 E0.01221 ; perimeter
G1 X134.507 Y101.551 E0.00800 ; perimeter
G1 X134.851 Y101.485 E0.01100 ; perimeter
G1 X135.295 Y101.548 E0.01405 ; perimeter
G1 X135.641 Y101.748 E0.01251 ; perimeter
G1 X135.824 Y101.931 E0.00813 ; perimeter
G1 X136.019 Y102.269 E0.01221 ; perimeter
G1 X136.091 Y102.678 E0.01303 ; perimeter
G1 X136.019 Y103.087 E0.01303 ; perimeter
G1 X135.813 Y103.444 E0.01290 ; perimeter
G1 X135.549 Y103.672 E0.01095 ; perimeter
G1 X135.289 Y103.805 E0.00917 ; perimeter
G1 X134.894 Y103.875 E0.01257 ; perimeter
G1 X134.510 Y103.807 E0.01221 ; perimeter
G1 X134.279 Y103.699 E0.00800 ; perimeter
G1 X134.007 Y103.478 E0.01100 ; perimeter
G1 X133.771 Y103.097 E0.01405 ; perimeter
G1 X133.697 Y102.678 E0.01334 ; perimeter
G1 X133.769 Y102.269 E0.01303 ; perimeter
G1 X133.947 Y101.961 E0.01115 ; perimeter
G1 X134.480 Y101.979 F10800.000 ; move to first perimeter point
;TYPE:External perimeter
G1 F1200.000
G1 X134.623 Y101.912 E0.00497 ; perimeter
G1 X134.860 Y101.867 E0.00755 ; perimeter
G1 X135.169 Y101.911 E0.00980 ; perimeter
G1 X135.409 Y102.050 E0.00868 ; perimeter
G1 X135.522 Y102.163 E0.00502 ; perimeter
G1 X135.659 Y102.400 E0.00857 ; perimeter
G1 X135.708 Y102.678 E0.00886 ; perimeter
G1 X135.659 Y102.956 E0.00886 ; perimeter
G1 X135.518 Y103.200 E0.00882 ; perimeter
G1 X135.336 Y103.357 E0.00753 ; perimeter
G1 X135.167 Y103.444 E0.00597 ; perimeter
G1 X134.894 Y103.492 E0.00870 ; perimeter
G1 X134.625 Y103.445 E0.00857 ; perimeter
G1 X134.481 Y103.378 E0.00497 ; perimeter
G1 X134.294 Y103.225 E0.00755 ; perimeter
G1 X134.130 Y102.960 E0.00980 ; perimeter
G1 X134.080 Y102.678 E0.00897 ; perimeter
G1 X134.129 Y102.400 E0.00886 ; perimeter
G1 X134.270 Y102.155 E0.00886 ; perimeter
G1 X134.434 Y102.018 E0.00669 ; perimeter
G1 X134.470 Y101.821 F10800.000 ; move inwards before travel
;WIPE_START
G1 F8640.000
G1 X134.623 Y101.912 E-0.05011 ; wipe and retract
G1 X134.860 Y101.867 E-0.05563 ; wipe and retract
G1 X135.169 Y101.911 E-0.07215 ; wipe and retract
G1 X135.409 Y102.050 E-0.06391 ; wipe and retract
G1 X135.522 Y102.163 E-0.03695 ; wipe and retract
G1 X135.659 Y102.400 E-0.06311 ; wipe and retract
G1 X135.708 Y102.678 E-0.06528 ; wipe and retract
G1 X135.659 Y102.956 E-0.06528 ; wipe and retract
G1 X135.518 Y103.200 E-0.06492 ; wipe and retract
G1 X135.336 Y103.357 E-0.05548 ; wipe and retract
G1 X135.167 Y103.444 E-0.04394 ; wipe and retract
G1 X134.894 Y103.492 E-0.06405 ; wipe and retract
G1 X134.625 Y103.445 E-0.06311 ; wipe and retract
G1 X134.481 Y103.378 E-0.03660 ; wipe and retract
G1 X134.294 Y103.225 E-0.05562 ; wipe and retract
G1 X134.130 Y102.960 E-0.07215 ; wipe and retract
G1 X134.113 Y102.867 E-0.02171 ; wipe and retract
;WIPE_END
G1 E-0.05000 F2100.000 ; retract
G1 Z0.400 F10800.000 ; lift Z
G1 X134.904 Y99.559 ; move to first perimeter point
G1 Z0.200 ; restore layer Z
G1 E1.00000 F2100.000 ; unretract
;TYPE:Perimeter
G1 F1200.000
G1 X134.510 Y99.489 E0.01251 ; perimeter
M73 Q2 S18
G1 X134.279 Y99.381 E0.00800 ; perimeter
G1 X134.007 Y99.160 E0.01100 ; perimeter
G1 X133.771 Y98.779 E0.01405 ; perimeter
G1 X133.697 Y98.360 E0.01334 ; perimeter
G1 X133.769 Y97.951 E0.01303 ; perimeter
G1 X133.977 Y97.591 E0.01303 ; perimeter
G1 X134.275 Y97.340 E0.01221 ; perimeter
G1 X134.507 Y97.233 E0.00800 ; perimeter
G1 X134.851 Y97.167 E0.01100 ; perimeter
G1 X135.295 Y97.230 E0.01405 ; perimeter
G1 X135.641 Y97.430 E0.01251 ; perimeter
G1 X135.821 Y97.610 E0.00800 ; perimeter
G1 X136.001 Y97.912 E0.01100 ; perimeter
M73 P2 R18
G1 X136.093 Y98.350 E0.01405 ; perimeter
G1 X136.019 Y98.769 E0.01334 ; perimeter
G1 X135.824 Y99.107 E0.01221 ; perimeter
G1 X135.644 Y99.287 E0.00800 ; perimeter
G1 X135.342 Y99.467 E0.01100 ; perimeter
G1 X134.962 Y99.546 E0.01217 ; perimeter
G1 X134.897 Y99.175 F10800.000 ; move to first perimeter point
;TYPE:External perimeter
G1 F1200.000
G1 X134.625 Y99.127 E0.00868 ; perimeter
G1 X134.481 Y99.060 E0.00497 ; perimeter
G1 X134.294 Y98.907 E0.00755 ; perimeter
G1 X134.130 Y98.642 E0.00980 ; perimeter
G1 X134.080 Y98.360 E0.00897 ; perimeter
G1 X134.129 Y98.082 E0.00886 ; perimeter
G1 X134.270 Y97.837 E0.00886 ; perimeter
G1 X134.480 Y97.661 E0.00857 ; perimeter
G1 X134.623 Y97.594 E0.00497 ; perimeter
G1 X134.860 Y97.549 E0.00755 ; perimeter
G1 X135.169 Y97.593 E0.00980 ; perimeter
G1 X135.409 Y97.732 E0.00868 ; perimeter
G1 X135.521 Y97.844 E0.00497 ; perimeter
G1 X135.645 Y98.051 E0.00755 ; perimeter
G1 X135.709 Y98.357 E0.00980 ; perimeter
G1 X135.659 Y98.638 E0.00897 ; perimeter
G1 X135.522 Y98.875 E0.00857 ; perimeter
G1 X135.410 Y98.987 E0.00497 ; perimeter
G1 X135.203 Y99.111 E0.00755 ; perimeter
G1 X134.956 Y99.162 E0.00792 ; perimeter
G1 X134.759 Y99.414 F10800.000 ; move inwards before travel
;WIPE_START
G1 F8640.000
G1 X134.625 Y99.127 E-0.07694 ; wipe and retract
G1 X134.481 Y99.060 E-0.03660 ; wipe and retract
G1 X134.294 Y98.907 E-0.05562 ; wipe and retract
G1 X134.130 Y98.642 E-0.07216 ; wipe and retract
G1 X134.080 Y98.360 E-0.06607 ; wipe and retract
G1 X134.129 Y98.082 E-0.06528 ; wipe and retract
G1 X134.270 Y97.837 E-0.06528 ; wipe and retract
G1 X134.480 Y97.661 E-0.06311 ; wipe and retract
G1 X134.623 Y97.594 E-0.03660 ; wipe and retract
G1 X134.860 Y97.549 E-0.05563 ; wipe and retract
G1 X135.169 Y97.593 E-0.07215 ; wipe and retract
G1 X135.409 Y97.732 E-0.06391 ; wipe and retract
G1 X135.521 Y97.844 E-0.03660 ; wipe and retract
G1 X135.645 Y98.051 E-0.05563 ; wipe and retract
G1 X135.709 Y98.357 E-0.07216 ; wipe and retract
G1 X135.666 Y98.597 E-0.05627 ; wipe and retract
;WIPE_END
G1 E-0.05000 F2100.000 ; retract
G1 Z0.400 F10800.000 ; lift Z
G1 X141.317 Y98.360 ; move to first perimeter point
G1 Z0.200 ; restore layer Z
G1 E1.00000 F2100.000 ; unretract
;TYPE:Perimeter
G1 F1200.000
G1 X141.389 Y97.951 E0.01303 ; perimeter
G1 X141.597 Y97.591 E0.01303 ; perimeter
G1 X141.895 Y97.340 E0.01221 ; perimeter
G1 X142.127 Y97.233 E0.00800 ; perimeter
G1 X142.471 Y97.167 E0.01100 ; perimeter
G1 X142.915 Y97.230 E0.01405 ; perimeter
G1 X143.261 Y97.430 E0.01251 ; perimeter
G1 X143.441 Y97.610 E0.00800 ; perimeter
G1 X143.621 Y97.912 E0.01100 ; perimeter
G1 X143.713 Y98.350 E0.01405 ; perimeter
G1 X143.639 Y98.769 E0.01334 ; perimeter
G1 X143.431 Y99.129 E0.01303 ; perimeter
G1 X143.133 Y99.380 E0.01221 ; perimeter
G1 X142.898 Y99.489 E0.00813 ; perimeter
G1 X142.514 Y99.557 E0.01221 ; perimeter
G1 X142.130 Y99.489 E0.01221 ; perimeter
G1 X141.899 Y99.381 E0.00800 ; perimeter
G1 X141.627 Y99.160 E0.01100 ; perimeter
G1 X141.391 Y98.779 E0.01405 ; perimeter
G1 X141.328 Y98.419 E0.01145 ; perimeter
G1 X141.700 Y98.360 F10800.000 ; move to first perimeter point
;TYPE:External perimeter
G1 F1200.000
G1 X141.749 Y98.082 E0.00886 ; perimeter
G1 X141.890 Y97.837 E0.00886 ; perimeter
G1 X142.100 Y97.661 E0.00857 ; perimeter
G1 X142.243 Y97.594 E0.00497 ; perimeter
G1 X142.480 Y97.549 E0.00755 ; perimeter
G1 X142.789 Y97.593 E0.00980 ; perimeter
G1 X143.029 Y97.732 E0.00868 ; perimeter
G1 X143.141 Y97.844 E0.00497 ; perimeter
G1 X143.265 Y98.051 E0.00755 ; perimeter
G1 X143.329 Y98.357 E0.00980 ; perimeter
G1 X143.279 Y98.638 E0.00897 ; perimeter
G1 X143.138 Y98.883 E0.00886 ; perimeter
G1 X142.928 Y99.059 E0.00857 ; perimeter
G1 X142.783 Y99.127 E0.00502 ; perimeter
G1 X142.514 Y99.174 E0.00857 ; perimeter
G1 X142.245 Y99.127 E0.00857 ; perimeter
G1 X142.101 Y99.060 E0.00497 ; perimeter
G1 X141.914 Y98.907 E0.00755 ; perimeter
G1 X141.750 Y98.642 E0.00980 ; perimeter
G1 X141.710 Y98.419 E0.00709 ; perimeter
G1 X141.454 Y98.221 F10800.000 ; move inwards before travel
;WIPE_START
G1 F8640.000
G1 X141.749 Y98.082 E-0.07844 ; wipe and retract
G1 X141.890 Y97.837 E-0.06528 ; wipe and retract
G1 X142.100 Y97.661 E-0.06311 ; wipe and retract
G1 X142.243 Y97.594 E-0.03660 ; wipe and retract
G1 X142.480 Y97.549 E-0.05563 ; wipe and retract
G1 X142.789 Y97.593 E-0.07215 ; wipe and retract
G1 X143.029 Y97.732 E-0.06391 ; wipe and retract
G1 X143.141 Y97.844 E-0.03660 ; wipe and retract
G1 X143.265 Y98.051 E-0.05563 ; wipe and retract
G1 X143.329 Y98.357 E-0.07216 ; wipe and retract
G1 X143.279 Y98.638 E-0.06607 ; wipe and retract
G1 X143.138 Y98.883 E-0.06528 ; wipe and retract
G1 X142.928 Y99.059 E-0.06311 ; wipe and retract
G1 X142.783 Y99.127 E-0.03695 ; wipe and retract
G1 X142.514 Y99.174 E-0.06311 ; wipe and retract
G1 X142.275 Y99.132 E-0.05599 ; wipe and retract
;WIPE_END
G1 E-0.05000 F2100.000 ; retract
G1 Z0.400 F10800.000 ; lift Z
G1 X142.302 Y101.517 ; move to first perimeter point
G1 Z0.200 ; restore layer Z
G1 E1.00000 F2100.000 ; unretract
;TYPE:Perimeter
G1 F1200.000
G1 X142.471 Y101.485 E0.00541 ; perimeter
G1 X142.915 Y101.548 E0.01405 ; perimeter
G1 X143.261 Y101.748 E0.01251 ; perimeter
G1 X143.441 Y101.928 E0.00800 ; perimeter
G1 X143.621 Y102.230 E0.01100 ; perimeter
G1 X143.713 Y102.668 E0.01405 ; perimeter
G1 X143.639 Y103.087 E0.01334 ; perimeter
G1 X143.433 Y103.444 E0.01290 ; perimeter
G1 X143.169 Y103.672 E0.01095 ; perimeter
G1 X142.909 Y103.805 E0.00917 ; perimeter
G1 X142.514 Y103.875 E0.01257 ; perimeter
G1 X142.130 Y103.807 E0.01221 ; perimeter
G1 X141.899 Y103.699 E0.00800 ; perimeter
G1 X141.627 Y103.478 E0.01100 ; perimeter
G1 X141.391 Y103.097 E0.01405 ; perimeter
G1 X141.317 Y102.678 E0.01334 ; perimeter
G1 X141.389 Y102.269 E0.01303 ; perimeter
G1 X141.597 Y101.909 E0.01303 ; perimeter
G1 X141.895 Y101.658 E0.01221 ; perimeter
G1 X142.127 Y101.551 E0.00800 ; perimeter
G1 X142.243 Y101.528 E0.00371 ; perimeter
G1 X142.243 Y101.912 F10800.000 ; move to first perimeter point
;TYPE:External perimeter
G1 F1200.000
G1 X142.480 Y101.867 E0.00755 ; perimeter
G1 X142.789 Y101.911 E0.00980 ; perimeter
G1 X143.029 Y102.050 E0.00868 ; perimeter
G1 X143.141 Y102.162 E0.00497 ; perimeter
G1 X143.265 Y102.369 E0.00755 ; perimeter
G1 X143.329 Y102.675 E0.00980 ; perimeter
G1 X143.279 Y102.956 E0.00897 ; perimeter
G1 X143.138 Y103.200 E0.00882 ; perimeter
G1 X142.956 Y103.357 E0.00753 ; perimeter
G1 X142.787 Y103.444 E0.00597 ; perimeter
G1 X142.514 Y103.492 E0.00870 ; perimeter
G1 X142.245 Y103.445 E0.00857 ; perimeter
G1 X142.101 Y103.378 E0.00497 ; perimeter
G1 X141.914 Y103.225 E0.00755 ; perimeter
G1 X141.750 Y102.960 E0.00980 ; perimeter
G1 X141.700 Y102.678 E0.00897 ; perimeter
G1 X141.749 Y102.400 E0.00886 ; perimeter
G1 X141.890 Y102.155 E0.00886 ; perimeter
G1 X142.100 Y101.979 E0.00857 ; perimeter
G1 X142.189 Y101.937 E0.00309 ; perimeter
G1 X142.291 Y101.676 F10800.000 ; move inwards before travel
;WIPE_START
G1 F8640.000
G1 X142.480 Y101.867 E-0.06914 ; wipe and retract
G1 X142.789 Y101.911 E-0.07215 ; wipe and retract
G1 X143.029 Y102.050 E-0.06391 ; wipe and retract
G1 X143.141 Y102.162 E-0.03660 ; wipe and retract
G1 X143.265 Y102.369 E-0.05563 ; wipe and retract
G1 X143.329 Y102.675 E-0.07216 ; wipe and retract
G1 X143.279 Y102.956 E-0.06607 ; wipe and retract
G1 X143.138 Y103.200 E-0.06492 ; wipe and retract
G1 X142.956 Y103.357 E-0.05548 ; wipe and retract
G1 X142.787 Y103.444 E-0.04394 ; wipe and retract
G1 X142.514 Y103.492 E-0.06405 ; wipe and retract
G1 X142.245 Y103.445 E-0.06311 ; wipe and retract
G1 X142.101 Y103.378 E-0.03660 ; wipe and retract
G1 X141.914 Y103.225 E-0.05562 ; wipe and retract
G1 X141.750 Y102.960 E-0.07216 ; wipe and retract
G1 X141.706 Y102.710 E-0.05846 ; wipe and retract
;WIPE_END
G1 E-0.05000 F2100.000 ; retract
G1 Z0.400 F10800.000 ; lift Z
G1 X141.645 Y106.374 ; move to first perimeter point
G1 Z0.200 ; restore layer Z
G1 E1.00000 F2100.000 ; unretract
;TYPE:Perimeter
G1 F1200.000
G1 X142.010 Y106.585 E0.01320 ; perimeter
G1 X142.238 Y106.849 E0.01095 ; perimeter
G1 X142.371 Y107.109 E0.00917 ; perimeter
G1 X142.441 Y107.504 E0.01257 ; perimeter
G1 X142.369 Y107.913 E0.01303 ; perimeter
G1 X142.161 Y108.273 E0.01303 ; perimeter
G1 X141.842 Y108.541 E0.01303 ; perimeter
G1 X141.476 Y108.674 E0.01221 ; perimeter
G1 X141.218 Y108.696 E0.00813 ; perimeter
G1 X140.860 Y108.633 E0.01139 ; perimeter
G1 X140.629 Y108.525 E0.00800 ; perimeter
G1 X140.357 Y108.304 E0.01100 ; perimeter
G1 X140.121 Y107.923 E0.01405 ; perimeter
G1 X140.047 Y107.504 E0.01334 ; perimeter
G1 X140.119 Y107.095 E0.01303 ; perimeter
