; generated by PrusaSlicer 2.3.3+win64 on 2021-10-20 at 21:07:07 UTC

; 

; external perimeters extrusion width = 0.45mm
; perimeters extrusion width = 0.45mm
; infill extrusion width = 0.45mm
; solid infill extrusion width = 0.45mm
; top infill extrusion width = 0.40mm
; support material extrusion width = 0.35mm
; first layer extrusion width = 0.42mm

M73 P0 R2
M73 Q0 S2
M201 X1000 Y1000 Z200 E5000 ; sets maximum accelerations, mm/sec^2
M203 X200 Y200 Z12 E120 ; sets maximum feedrates, mm/sec
M204 P1250 R1250 T1250 ; sets acceleration (P, T) and retract acceleration (R), mm/sec^2
M205 X8.00 Y8.00 Z0.40 E4.50 ; sets the jerk limits, mm/sec
M205 S0 T0 ; sets the minimum extruding and travel feed rate, mm/sec
M107 ; disable fan
;TYPE:Custom
M862.3 P "MK3S" ; printer model check
M862.1 P0.4 ; nozzle diameter check
M115 U3.10.0 ; tell printer latest fw version
G90 ; use absolute coordinates
M83 ; extruder relative mode
M104 S240 ; set extruder temp
M140 S85 ; set bed temp
M190 S85 ; wait for bed temp
M109 S240 ; wait for extruder temp
G28 W ; home all without mesh bed level
G80 ; mesh bed leveling
G1 Y-3.0 F1000.0 ; go outside print area
G92 E0.0
G1 X60.0 E9.0 F1000.0 ; intro line
M73 P2 R2
M73 Q2 S2
G1 X100.0 E12.5 F1000.0 ; intro line
G92 E0.0
M221 S95

; Don't change E values below. Excessive value can damage the printer.
M907 E430 ; set extruder motor current
G21 ; set units to millimeters
G90 ; use absolute coordinates
M83 ; use relative distances for extrusion
M900 K0.08 ; Filament gcode LA 1.5
M900 K45 ; Filament gcode LA 1.0
;LAYER_CHANGE
;Z:0.2
;HEIGHT:0.2
;BEFORE_LAYER_CHANGE
G92 E0.0
;0.2


M73 P4 R2
M73 Q4 S2
G1 E-1.00000 F2100.000 ; retract
G1 Z0.200 F10800.000 ; lift Z
;AFTER_LAYER_CHANGE
;0.2
G1 Z0.400 ; lift Z
G1 X119.650 Y99.752 ; move to first skirt point
M73 Q5 S2
G1 Z0.200 ; restore layer Z
G1 E1.00000 F2100.000 ; unretract
M204 S1000 ; adjust acceleration
;TYPE:Skirt
;WIDTH:0.42
M73 P5 R2
G1 F1149
G1 X119.750 Y99.632 E0.00490 ; skirt
G1 X120.924 Y98.695 E0.04711 ; skirt
G1 X122.150 Y98.053 E0.04340 ; skirt
G1 X123.586 Y97.626 E0.04697 ; skirt
G1 X125.073 Y97.492 E0.04682 ; skirt
G1 X126.455 Y97.634 E0.04354 ; skirt
G1 X127.888 Y98.069 E0.04697 ; skirt
G1 X129.206 Y98.781 E0.04697 ; skirt
G1 X130.283 Y99.665 E0.04369 ; skirt
G1 X131.232 Y100.812 E0.04668 ; skirt
G1 X131.943 Y102.141 E0.04726 ; skirt
G1 X132.376 Y103.599 E0.04769 ; skirt
G1 X132.508 Y104.986 E0.04369 ; skirt
G1 X132.362 Y106.472 E0.04682 ; skirt
G1 X131.923 Y107.905 E0.04697 ; skirt
M73 Q6 S2
G1 X131.270 Y109.130 E0.04354 ; skirt
G1 X130.319 Y110.299 E0.04726 ; skirt
G1 X129.146 Y111.260 E0.04755 ; skirt
G1 X127.816 Y111.960 E0.04711 ; skirt
M73 P6 R2
G1 X126.481 Y112.360 E0.04369 ; skirt
G1 X124.977 Y112.508 E0.04740 ; skirt
G1 X123.469 Y112.350 E0.04755 ; skirt
G1 X122.044 Y111.902 E0.04682 ; skirt
G1 X120.824 Y111.239 E0.04354 ; skirt
G1 X119.665 Y110.283 E0.04712 ; skirt
G1 X118.725 Y109.122 E0.04682 ; skirt
G1 X118.071 Y107.892 E0.04369 ; skirt
G1 X117.635 Y106.459 E0.04696 ; skirt
G1 X117.492 Y104.945 E0.04769 ; skirt
G1 X117.653 Y103.451 E0.04711 ; skirt
G1 X118.066 Y102.120 E0.04369 ; skirt
G1 X118.776 Y100.801 E0.04697 ; skirt
G1 X119.611 Y99.799 E0.04091 ; skirt
G1 X119.899 Y100.039 F10800.000 ; move to first skirt point
G1 F1149
G1 X120.013 Y99.903 E0.00555 ; skirt
G1 X121.131 Y99.009 E0.04489 ; skirt
M73 Q7 S2
G1 X122.296 Y98.401 E0.04120 ; skirt
G1 X123.660 Y97.995 E0.04462 ; skirt
G1 X125.073 Y97.869 E0.04448 ; skirt
G1 X126.380 Y98.003 E0.04120 ; skirt
M73 P7 R2
G1 X127.746 Y98.418 E0.04475 ; skirt
G1 X128.998 Y99.095 E0.04462 ; skirt
G1 X130.015 Y99.930 E0.04128 ; skirt
G1 X130.918 Y101.021 E0.04440 ; skirt
G1 X131.594 Y102.284 E0.04489 ; skirt
G1 X132.006 Y103.673 E0.04544 ; skirt
G1 X132.131 Y104.985 E0.04134 ; skirt
G1 X131.992 Y106.401 E0.04461 ; skirt
G1 X131.574 Y107.762 E0.04462 ; skirt
G1 X130.958 Y108.918 E0.04107 ; skirt
G1 X130.053 Y110.032 E0.04503 ; skirt
G1 X128.935 Y110.947 E0.04530 ; skirt
G1 X127.671 Y111.611 E0.04475 ; skirt
G1 X126.413 Y111.989 E0.04120 ; skirt
G1 X124.979 Y112.131 E0.04516 ; skirt
G1 X123.547 Y111.981 E0.04516 ; skirt
M73 Q8 S2
G1 X122.190 Y111.554 E0.04461 ; skirt
G1 X121.035 Y110.927 E0.04120 ; skirt
G1 X119.934 Y110.018 E0.04476 ; skirt
G1 X119.038 Y108.912 E0.04462 ; skirt
M73 P8 R2
G1 X118.421 Y107.750 E0.04128 ; skirt
G1 X118.005 Y106.387 E0.04467 ; skirt
G1 X117.869 Y104.944 E0.04543 ; skirt
G1 X118.023 Y103.525 E0.04475 ; skirt
G1 X118.414 Y102.266 E0.04134 ; skirt
G1 X119.088 Y101.013 E0.04462 ; skirt
G1 X119.861 Y100.085 E0.03787 ; skirt
G1 X120.279 Y100.170 F10800.000 ; move to first skirt point
G1 F1149
G1 X121.339 Y99.324 E0.04252 ; skirt
G1 X122.438 Y98.751 E0.03887 ; skirt
G1 X123.730 Y98.366 E0.04227 ; skirt
G1 X125.073 Y98.246 E0.04227 ; skirt
G1 X126.306 Y98.373 E0.03887 ; skirt
G1 X127.600 Y98.766 E0.04240 ; skirt
G1 X128.789 Y99.409 E0.04240 ; skirt
G1 X129.748 Y100.196 E0.03888 ; skirt
G1 X130.605 Y101.231 E0.04213 ; skirt
M73 Q9 S2
G1 X131.245 Y102.427 E0.04253 ; skirt
G1 X131.637 Y103.746 E0.04317 ; skirt
G1 X131.754 Y104.985 E0.03900 ; skirt
G1 X131.623 Y106.326 E0.04227 ; skirt
M73 P9 R2
G1 X131.225 Y107.619 E0.04240 ; skirt
G1 X130.644 Y108.709 E0.03874 ; skirt
G1 X129.786 Y109.765 E0.04265 ; skirt
G1 X128.727 Y110.632 E0.04291 ; skirt
G1 X127.527 Y111.263 E0.04252 ; skirt
G1 X126.340 Y111.620 E0.03887 ; skirt
G1 X124.982 Y111.754 E0.04278 ; skirt
G1 X123.625 Y111.612 E0.04278 ; skirt
G1 X122.335 Y111.206 E0.04240 ; skirt
G1 X121.246 Y110.614 E0.03887 ; skirt
G1 X120.202 Y109.754 E0.04240 ; skirt
G1 X119.352 Y108.703 E0.04240 ; skirt
G1 X118.770 Y107.608 E0.03888 ; skirt
G1 X118.376 Y106.319 E0.04226 ; skirt
G1 X118.246 Y104.948 E0.04317 ; skirt
G1 X118.393 Y103.600 E0.04253 ; skirt
M73 Q10 S2
G1 X118.760 Y102.416 E0.03887 ; skirt
G1 X119.400 Y101.224 E0.04240 ; skirt
G1 X120.240 Y100.216 E0.04116 ; skirt
G1 X120.528 Y100.457 F10800.000 ; move to first skirt point
G1 F1149
G1 X121.546 Y99.639 E0.04093 ; skirt
M73 P10 R2
G1 X122.576 Y99.101 E0.03642 ; skirt
G1 X123.800 Y98.737 E0.04005 ; skirt
G1 X125.072 Y98.623 E0.04005 ; skirt
G1 X126.232 Y98.743 E0.03654 ; skirt
G1 X127.454 Y99.114 E0.04005 ; skirt
G1 X128.578 Y99.721 E0.04005 ; skirt
G1 X129.480 Y100.461 E0.03659 ; skirt
G1 X130.292 Y101.441 E0.03988 ; skirt
G1 X130.897 Y102.574 E0.04029 ; skirt
G1 X131.266 Y103.816 E0.04064 ; skirt
G1 X131.377 Y104.980 E0.03666 ; skirt
G1 X131.253 Y106.252 E0.04005 ; skirt
G1 X130.878 Y107.473 E0.04005 ; skirt
G1 X130.332 Y108.498 E0.03642 ; skirt
G1 X129.522 Y109.496 E0.04029 ; skirt
G1 X128.520 Y110.317 E0.04064 ; skirt
G1 X127.386 Y110.913 E0.04017 ; skirt
G1 X126.270 Y111.249 E0.03654 ; skirt
M73 Q11 S2
G1 X124.984 Y111.377 E0.04052 ; skirt
G1 X123.698 Y111.242 E0.04052 ; skirt
G1 X122.480 Y110.858 E0.04005 ; skirt
G1 X121.456 Y110.301 E0.03654 ; skirt
M73 P11 R2
G1 X120.471 Y109.489 E0.04005 ; skirt
G1 X119.667 Y108.496 E0.04005 ; skirt
G1 X119.119 Y107.466 E0.03659 ; skirt
G1 X118.746 Y106.246 E0.04000 ; skirt
G1 X118.623 Y104.948 E0.04088 ; skirt
G1 X118.762 Y103.674 E0.04017 ; skirt
G1 X119.108 Y102.560 E0.03659 ; skirt
G1 X119.712 Y101.436 E0.04000 ; skirt
G1 X120.490 Y100.503 E0.03810 ; skirt
; printing object switch_cap.stl id:0 copy 0
;WIPE_START
G1 F8640.000
G1 X121.546 Y99.639 E-0.31505 ; wipe and retract
G1 X122.576 Y99.101 E-0.26824 ; wipe and retract
G1 X123.800 Y98.737 E-0.29493 ; wipe and retract
G1 X124.110 Y98.709 E-0.07178 ; wipe and retract
;WIPE_END
G1 E-0.05000 F2100.000 ; retract
G1 Z0.400 F10800.000 ; lift Z
G1 X122.467 Y102.463 ; move to first perimeter point
G1 Z0.200 ; restore layer Z
G1 E1.00000 F2100.000 ; unretract
;TYPE:External perimeter
G1 F1149
G1 X122.871 Y102.109 E0.01684 ; perimeter
G1 X123.079 Y101.967 E0.00790 ; perimeter
G1 X123.395 Y101.789 E0.01137 ; perimeter
G1 X123.734 Y101.641 E0.01159 ; perimeter
G1 X124.086 Y101.528 E0.01159 ; perimeter
G1 X124.448 Y101.453 E0.01159 ; perimeter
G1 X124.817 Y101.415 E0.01164 ; perimeter
G1 X125.069 Y101.411 E0.00790 ; perimeter
M73 Q12 S2
G1 X125.430 Y101.436 E0.01137 ; perimeter
G1 X125.794 Y101.499 E0.01159 ; perimeter
G1 X126.150 Y101.599 E0.01159 ; perimeter
G1 X126.494 Y101.736 E0.01159 ; perimeter
G1 X126.823 Y101.907 E0.01164 ; perimeter
G1 X127.035 Y102.043 E0.00790 ; perimeter
G1 X127.323 Y102.263 E0.01137 ; perimeter
G1 X127.592 Y102.516 E0.01159 ; perimeter
G1 X127.834 Y102.796 E0.01159 ; perimeter
G1 X128.045 Y103.099 E0.01159 ; perimeter
G1 X128.225 Y103.422 E0.01159 ; perimeter
G1 X128.370 Y103.762 E0.01159 ; perimeter
G1 X128.479 Y104.115 E0.01159 ; perimeter
G1 X128.552 Y104.478 E0.01159 ; perimeter
M73 P12 R2
G1 X128.587 Y104.847 E0.01164 ; perimeter
G1 X128.589 Y105.090 E0.00761 ; perimeter
G1 X128.560 Y105.461 E0.01164 ; perimeter
G1 X128.494 Y105.824 E0.01159 ; perimeter
G1 X128.390 Y106.179 E0.01159 ; perimeter
G1 X128.251 Y106.521 E0.01159 ; perimeter
G1 X128.077 Y106.848 E0.01159 ; perimeter
G1 X127.871 Y107.154 E0.01159 ; perimeter
G1 X127.633 Y107.439 E0.01164 ; perimeter
G1 X127.277 Y107.775 E0.01533 ; perimeter
G1 X126.978 Y107.995 E0.01164 ; perimeter
G1 X126.660 Y108.183 E0.01159 ; perimeter
G1 X126.324 Y108.336 E0.01159 ; perimeter
G1 X125.974 Y108.455 E0.01159 ; perimeter
G1 X125.613 Y108.537 E0.01159 ; perimeter
G1 X125.246 Y108.581 E0.01159 ; perimeter
G1 X124.877 Y108.587 E0.01159 ; perimeter
G1 X124.509 Y108.556 E0.01159 ; perimeter
G1 X124.146 Y108.486 E0.01159 ; perimeter
G1 X123.790 Y108.379 E0.01164 ; perimeter
G1 X123.564 Y108.290 E0.00761 ; perimeter
G1 X123.232 Y108.124 E0.01164 ; perimeter
G1 X122.920 Y107.925 E0.01159 ; perimeter
G1 X122.630 Y107.696 E0.01159 ; perimeter
G1 X122.366 Y107.438 E0.01159 ; perimeter
G1 X122.129 Y107.154 E0.01159 ; perimeter
G1 X121.923 Y106.848 E0.01159 ; perimeter
G1 X121.749 Y106.521 E0.01159 ; perimeter
G1 X121.610 Y106.179 E0.01159 ; perimeter
G1 X121.506 Y105.824 E0.01159 ; perimeter
G1 X121.440 Y105.461 E0.01159 ; perimeter
G1 X121.411 Y105.090 E0.01164 ; perimeter
G1 X121.432 Y104.602 E0.01533 ; perimeter
G1 X121.493 Y104.235 E0.01164 ; perimeter
G1 X121.590 Y103.879 E0.01159 ; perimeter
G1 X121.723 Y103.534 E0.01159 ; perimeter
G1 X121.891 Y103.205 E0.01159 ; perimeter
G1 X122.092 Y102.895 E0.01159 ; perimeter
G1 X122.425 Y102.505 E0.01606 ; perimeter
G1 X122.853 Y102.567 F10800.000 ; move inwards before travel
G1 X122.693 Y102.771 ; move to first perimeter point
;TYPE:Perimeter
G1 F1149
G1 X122.838 Y102.624 E0.00649 ; perimeter
G1 X123.279 Y102.288 E0.01737 ; perimeter
G1 X123.564 Y102.127 E0.01026 ; perimeter
G1 X123.867 Y101.994 E0.01038 ; perimeter
G1 X124.182 Y101.894 E0.01037 ; perimeter
G1 X124.506 Y101.826 E0.01037 ; perimeter
G1 X125.058 Y101.788 E0.01737 ; perimeter
G1 X125.385 Y101.811 E0.01026 ; perimeter
G1 X125.711 Y101.867 E0.01038 ; perimeter
G1 X126.029 Y101.957 E0.01037 ; perimeter
G1 X126.337 Y102.079 E0.01037 ; perimeter
G1 X126.819 Y102.352 E0.01737 ; perimeter
G1 X127.079 Y102.551 E0.01026 ; perimeter
G1 X127.320 Y102.778 E0.01038 ; perimeter
G1 X127.536 Y103.028 E0.01037 ; perimeter
G1 X127.725 Y103.299 E0.01037 ; perimeter
G1 X127.885 Y103.588 E0.01037 ; perimeter
G1 X128.015 Y103.892 E0.01037 ; perimeter
G1 X128.113 Y104.208 E0.01037 ; perimeter
G1 X128.178 Y104.533 E0.01037 ; perimeter
M73 Q13 S2
G1 X128.211 Y105.077 E0.01711 ; perimeter
G1 X128.186 Y105.412 E0.01053 ; perimeter
G1 X128.126 Y105.737 E0.01037 ; perimeter
G1 X128.034 Y106.055 E0.01037 ; perimeter
G1 X127.909 Y106.361 E0.01037 ; perimeter
G1 X127.754 Y106.653 E0.01037 ; perimeter
G1 X127.569 Y106.928 E0.01037 ; perimeter
G1 X127.354 Y107.185 E0.01053 ; perimeter
G1 X127.040 Y107.481 E0.01351 ; perimeter
G1 X126.770 Y107.680 E0.01053 ; perimeter
G1 X126.485 Y107.848 E0.01037 ; perimeter
G1 X126.185 Y107.985 E0.01037 ; perimeter
G1 X125.871 Y108.091 E0.01037 ; perimeter
M73 P13 R2
G1 X125.549 Y108.165 E0.01037 ; perimeter
G1 X125.220 Y108.204 E0.01037 ; perimeter
G1 X124.890 Y108.210 E0.01037 ; perimeter
G1 X124.560 Y108.182 E0.01037 ; perimeter
G1 X124.235 Y108.119 E0.01037 ; perimeter
G1 X123.914 Y108.023 E0.01053 ; perimeter
G1 X123.418 Y107.795 E0.01711 ; perimeter
G1 X123.139 Y107.618 E0.01037 ; perimeter
G1 X122.880 Y107.412 E0.01037 ; perimeter
G1 X122.643 Y107.182 E0.01037 ; perimeter
G1 X122.431 Y106.928 E0.01037 ; perimeter
G1 X122.246 Y106.653 E0.01037 ; perimeter
G1 X122.091 Y106.361 E0.01037 ; perimeter
G1 X121.966 Y106.055 E0.01037 ; perimeter
G1 X121.874 Y105.737 E0.01037 ; perimeter
G1 X121.814 Y105.412 E0.01037 ; perimeter
G1 X121.789 Y105.077 E0.01053 ; perimeter
G1 X121.807 Y104.647 E0.01351 ; perimeter
G1 X121.862 Y104.316 E0.01053 ; perimeter
G1 X121.949 Y103.997 E0.01037 ; perimeter
G1 X122.068 Y103.688 E0.01037 ; perimeter
G1 X122.218 Y103.394 E0.01037 ; perimeter
G1 X122.398 Y103.116 E0.01037 ; perimeter
G1 X122.650 Y102.813 E0.01235 ; perimeter
G1 X123.383 Y103.419 F10800.000 ; move to first perimeter point
;TYPE:External perimeter
G1 F1149
G1 X123.731 Y103.128 E0.01423 ; perimeter
G1 X124.131 Y102.912 E0.01423 ; perimeter
G1 X124.565 Y102.781 E0.01422 ; perimeter
G1 X124.997 Y102.739 E0.01361 ; perimeter
G1 X125.359 Y102.767 E0.01138 ; perimeter
G1 X125.795 Y102.883 E0.01416 ; perimeter
G1 X126.202 Y103.085 E0.01423 ; perimeter
G1 X126.560 Y103.363 E0.01423 ; perimeter
G1 X126.856 Y103.708 E0.01423 ; perimeter
G1 X127.076 Y104.104 E0.01423 ; perimeter
G1 X127.213 Y104.537 E0.01423 ; perimeter
G1 X127.261 Y104.988 E0.01423 ; perimeter
G1 X127.218 Y105.440 E0.01423 ; perimeter
G1 X127.085 Y105.874 E0.01423 ; perimeter
G1 X126.869 Y106.273 E0.01423 ; perimeter
G1 X126.578 Y106.618 E0.01415 ; perimeter
G1 X126.313 Y106.840 E0.01085 ; perimeter
G1 X125.921 Y107.065 E0.01415 ; perimeter
G1 X125.490 Y107.207 E0.01423 ; perimeter
G1 X125.042 Y107.260 E0.01415 ; perimeter
G1 X124.697 Y107.240 E0.01085 ; perimeter
G1 X124.258 Y107.136 E0.01415 ; perimeter
G1 X123.847 Y106.944 E0.01423 ; perimeter
G1 X123.481 Y106.675 E0.01423 ; perimeter
G1 X123.177 Y106.338 E0.01423 ; perimeter
G1 X122.947 Y105.947 E0.01423 ; perimeter
G1 X122.799 Y105.518 E0.01423 ; perimeter
G1 X122.740 Y105.068 E0.01423 ; perimeter
G1 X122.772 Y104.615 E0.01423 ; perimeter
G1 X122.894 Y104.178 E0.01423 ; perimeter
G1 X123.100 Y103.774 E0.01423 ; perimeter
M73 Q14 S2
G1 X123.346 Y103.466 E0.01235 ; perimeter
G1 X123.275 Y103.034 F10800.000 ; move inwards before travel
G1 X123.112 Y103.154 ; move to first perimeter point
;TYPE:Perimeter
G1 F1149
G1 X123.519 Y102.814 E0.01662 ; perimeter
G1 X123.985 Y102.562 E0.01662 ; perimeter
G1 X124.491 Y102.409 E0.01659 ; perimeter
G1 X124.993 Y102.361 E0.01581 ; perimeter
G1 X125.422 Y102.394 E0.01348 ; perimeter
G1 X125.929 Y102.528 E0.01643 ; perimeter
M73 P14 R2
G1 X126.403 Y102.764 E0.01662 ; perimeter
G1 X126.822 Y103.089 E0.01662 ; perimeter
G1 X127.167 Y103.491 E0.01662 ; perimeter
G1 X127.424 Y103.954 E0.01662 ; perimeter
G1 X127.584 Y104.459 E0.01662 ; perimeter
G1 X127.640 Y104.986 E0.01662 ; perimeter
G1 X127.590 Y105.514 E0.01662 ; perimeter
G1 X127.435 Y106.021 E0.01662 ; perimeter
G1 X127.182 Y106.486 E0.01662 ; perimeter
G1 X126.846 Y106.887 E0.01638 ; perimeter
G1 X126.529 Y107.151 E0.01293 ; perimeter
G1 X126.076 Y107.411 E0.01638 ; perimeter
G1 X125.573 Y107.577 E0.01662 ; perimeter
G1 X125.054 Y107.639 E0.01638 ; perimeter
G1 X124.642 Y107.615 E0.01293 ; perimeter
G1 X124.134 Y107.494 E0.01638 ; perimeter
G1 X123.653 Y107.270 E0.01662 ; perimeter
G1 X123.227 Y106.956 E0.01662 ; perimeter
G1 X122.872 Y106.562 E0.01662 ; perimeter
G1 X122.603 Y106.106 E0.01662 ; perimeter
G1 X122.430 Y105.605 E0.01662 ; perimeter
G1 X122.361 Y105.079 E0.01662 ; perimeter
G1 X122.398 Y104.551 E0.01662 ; perimeter
G1 X122.540 Y104.040 E0.01662 ; perimeter
G1 X122.782 Y103.568 E0.01662 ; perimeter
G1 X123.075 Y103.201 E0.01473 ; perimeter
G1 X122.902 Y102.962 F10800.000 ; move to first infill point
;TYPE:Gap fill
;WIDTH:0.236812
G1 F1149
G1 X123.367 Y102.573 E0.00977 ; infill
G1 X123.885 Y102.296 E0.00946 ; infill
G1 X124.446 Y102.128 E0.00944 ; infill
